X:35
T:La Virgine Degli
C:Giuseppe Verdi
N:Arranged by Carlo Aonzo TablEdited by Larry Klose
L:1/8
Q:1/4=120
M:6/8
K:G
z4z"G""Tremolo througho"[dB] | [d3B3] z3 | [d3B3] z2[dB] | "C"[e3c3] z2[ec] | 
[e3c3] z2"Cm"[cA] | [c3A3] z3 | [c3A3] z2[cA] | "E"[B3^G3] z3 | [B3^G3] z3 | "G"[B3G3] [B2G2][BG] | 
"D"[d3F3] [d2F2][dF] | "G"[g3B3] z3 | "C"[e3c3] z2[cA] | "G"[B3G3] [B2G2][BG] | 
"D"[d2F2]c zA2 | [A3D3] z3 | "G"[G3B,3] z3 | d'3 z3 | d'3 z2d' | "C"e'3 z2e' | 
e'3 z2"Cm"c' | c'3 z3 | c'3 z2c' | b3 z3 | b3 z3 | "G"[b3g3] [b2g2][bg] | "D"[d'3f3] [d'2f2][d'f] | 
"G"[g'3b3] z3 | [e'3c'3] z2[c'a] | "G"[b3g3] [b2g2][bg] | "D"[d'2f2]c' za2 | "D"[a3d3] z3 | 
"G"[g3B3] z3 | "G"[B3G3] [B2G2][BG] | "D"[d3F3] [d2F2][dF] | "G"[g3B3] z3 | "C"[e3c3] z2[cA] | 
"G"[B3G3] [B2G2][BG] | "D"[d2F2]c zA2 | "G"[G3B,3] z3 | z3 z2G | "Cm7"[^d3c3] z3 | 
"Cm/A"[^d3A3] z2=d | "G"[d3B3] z3 | z3 g3 | [e'3g3] z3 | [e'3g3] z2e' | [d'3f3] z3 | 
z3 z2d' | "Cm"[c'3a3] z3 | [c'3a3] z2[c'a] | "E"[b3^g3] z3 | [b3^g3] z3 | "D"[a3f3] z2[^gf] | 
[a3f3] d'3 | "G"[g3B3] z3 | "G"[g3d3] z3 | [b3g3] z3 | [d'3b3] z3 | [g'3d'3] z3 | 
z3 z3 | "Cm"^D3 =D3 | "G"G,3 z3 | "Cm"^D3 =D3 | "G"G,3 B3 | "G"[b'3g3] z3 | z3 z3 | 
z3 z3 | z2z/z/ z3 | 
 

